gtk-icons/Papirus-GTK/16x16/mimetypes/application-vnd.oasis.opendocument.database.svg

<?xml version="1.0" encoding="UTF-8" standalone="no"?>
<svg
   xmlns:dc="http://purl.org/dc/elements/1.1/"
   xmlns:cc="http://creativecommons.org/ns#"
   xmlns:rdf="http://www.w3.org/1999/02/22-rdf-syntax-ns#"
   xmlns:svg="http://www.w3.org/2000/svg"
   xmlns="http://www.w3.org/2000/svg"
   xmlns:sodipodi="http://sodipodi.sourceforge.net/DTD/sodipodi-0.dtd"
   xmlns:inkscape="http://www.inkscape.org/namespaces/inkscape"
   width="16px"
   height="16px"
   viewBox="0 0 16 16"
   version="1.1"
   id="svg2"
   inkscape:version="0.91 r"
   sodipodi:docname="application-vnd.oasis.opendocument.database.svg">
  <metadata
     id="metadata17">
    <rdf:RDF>
      <cc:Work
         rdf:about="">
        <dc:format>image/svg+xml</dc:format>
        <dc:type
           rdf:resource="http://purl.org/dc/dcmitype/StillImage" />
      </cc:Work>
    </rdf:RDF>
  </metadata>
  <defs
     id="defs15" />
  <sodipodi:namedview
     pagecolor="#ffffff"
     bordercolor="#666666"
     borderopacity="1"
     objecttolerance="10"
     gridtolerance="10"
     guidetolerance="10"
     inkscape:pageopacity="0"
     inkscape:pageshadow="2"
     inkscape:window-width="1535"
     inkscape:window-height="876"
     id="namedview13"
     showgrid="false"
     inkscape:zoom="14.75"
     inkscape:cx="-4.0338983"
     inkscape:cy="8"
     inkscape:window-x="65"
     inkscape:window-y="24"
     inkscape:window-maximized="1"
     inkscape:current-layer="svg2" />
  <g
     id="surface1"
     transform="matrix(1.2,0,0,1.2,-1.6,-1.1)">
    <path
       style="fill:#e61c61;fill-opacity:1;fill-rule:nonzero;stroke:none"
       d="M 3.625,1.75 C 3.277344,1.75 3,2.027344 3,2.375 l 0,11.25 c 0,0.347656 0.277344,0.625 0.625,0.625 l 8.75,0 C 12.722656,14.25 13,13.972656 13,13.625 L 13,5.5 9.5625,5.1875 9.25,1.75 Z m 0,0"
       id="path5"
       inkscape:connector-curvature="0" />
    <path
       style="fill:#f0709c;fill-opacity:1;fill-rule:nonzero;stroke:none"
       d="m 9.25,1.75 0,3.125 C 9.25,5.21875 9.53125,5.5 9.875,5.5 L 13,5.5 Z m 0,0"
       id="path7"
       inkscape:connector-curvature="0" />
    <path
       style="fill:#ffffff;fill-opacity:1;fill-rule:nonzero;stroke:none"
       d="M 8,7.25 C 7.160156,7.25 6.445312,7.542969 6.148438,7.953125 6.121094,7.988281 6.101562,8.023438 6.082031,8.058594 6.0625,8.09375 6.046875,8.128906 6.035156,8.164062 6.03125,8.175781 6.03125,8.1875 6.027344,8.195312 6.019531,8.222656 6.011719,8.246094 6.007812,8.269531 6.003906,8.304688 6,8.339844 6,8.375 6,8.410156 6.003906,8.449219 6.011719,8.484375 6.015625,8.519531 6.027344,8.554688 6.039062,8.589844 6.050781,8.625 6.066406,8.660156 6.082031,8.695312 6.101562,8.730469 6.125,8.761719 6.148438,8.796875 6.453125,9.222656 7.1875,9.5 8,9.5 8.8125,9.5 9.546875,9.222656 9.851562,8.796875 9.875,8.765625 9.890625,8.738281 9.90625,8.710938 9.910156,8.703125 9.914062,8.699219 9.917969,8.691406 9.929688,8.667969 9.941406,8.640625 9.949219,8.617188 9.953125,8.605469 9.960938,8.59375 9.964844,8.582031 9.972656,8.5625 9.976562,8.539062 9.980469,8.519531 9.984375,8.503906 9.988281,8.488281 9.992188,8.46875 9.996094,8.4375 10,8.40625 10,8.375 10,8.335938 9.996094,8.300781 9.988281,8.261719 9.96875,8.152344 9.921875,8.050781 9.851562,7.953125 9.554688,7.542969 8.839844,7.25 8,7.25 Z M 6.148438,9.5 C 6.050781,9.628906 6,9.769531 6,9.910156 6,10.511719 6.894531,11 8,11 9.105469,11 10,10.511719 10,9.910156 10,9.769531 9.949219,9.628906 9.851562,9.5 9.546875,9.910156 8.816406,10.25 8,10.25 7.183594,10.25 6.453125,9.910156 6.148438,9.5 Z m 0,1.5 C 6.050781,11.128906 6,11.269531 6,11.410156 6,12.011719 6.894531,12.5 8,12.5 c 1.105469,0 2,-0.488281 2,-1.089844 C 10,11.269531 9.949219,11.128906 9.851562,11 9.546875,11.410156 8.816406,11.75 8,11.75 7.183594,11.75 6.453125,11.410156 6.148438,11 Z m 0,0"
       id="path9"
       inkscape:connector-curvature="0" />
    <path
       style="fill:#ffffff;fill-opacity:0.2;fill-rule:nonzero;stroke:none"
       d="M 3.625,1.75 C 3.277344,1.75 3,2.027344 3,2.375 l 0,0.5 C 3,2.527344 3.277344,2.25 3.625,2.25 l 5.625,0 c 0,-0.5 0,0 0,-0.5 z m 0,0"
       id="path11"
       inkscape:connector-curvature="0" />
  </g>
</svg>

<?xml version="1.0" encoding="UTF-8" standalone="no"?>
<svg id="svg2" xmlns:rdf="http://www.w3.org/1999/02/22-rdf-syntax-ns#" xmlns="http://www.w3.org/2000/svg" height="16px" width="16px" version="1.1" xmlns:cc="http://creativecommons.org/ns#" xmlns:dc="http://purl.org/dc/elements/1.1/" viewBox="0 0 16 16">
 <metadata id="metadata17">
  <rdf:RDF>
   <cc:Work rdf:about="">
    <dc:format>image/svg+xml</dc:format>
    <dc:type rdf:resource="http://purl.org/dc/dcmitype/StillImage"/>
   </cc:Work>
  </rdf:RDF>
 </metadata>
 <g id="surface1" transform="matrix(1.2,0,0,1.2,-1.6,-1.1)">
  <path id="path5" d="m3.625 1.75c-0.3477 0-0.625 0.2773-0.625 0.625v11.25c0 0.34766 0.27734 0.625 0.625 0.625h8.75c0.348 0 0.625-0.277 0.625-0.625v-8.125l-3.4375-0.3125-0.3125-3.4375z" fill="#e61c61"/>
  <path id="path7" d="m9.25 1.75v3.125c0 0.3438 0.2812 0.625 0.625 0.625h3.125z" fill="#f0709c"/>
  <path id="path9" d="m8 7.25c-0.8398 0-1.5547 0.293-1.8516 0.7031-0.0273 0.0352-0.0468 0.0703-0.0664 0.1055-0.0195 0.0352-0.0351 0.0703-0.0468 0.1055-0.004 0.0117-0.004 0.0234-0.0079 0.0312-0.0078 0.0274-0.0156 0.0508-0.0195 0.0742-0.0039 0.0352-0.0078 0.0703-0.0078 0.1055s0.0039 0.0742 0.0117 0.1094c0.0039 0.0351 0.0156 0.0703 0.0274 0.1054 0.0117 0.0352 0.0273 0.0704 0.0429 0.1055 0.0196 0.0352 0.043 0.0664 0.0664 0.1016 0.3047 0.4258 1.0391 0.7031 1.8516 0.7031s1.5469-0.2773 1.8516-0.7031c0.0234-0.0313 0.039-0.0586 0.0546-0.086 0.004-0.0078 0.0079-0.0117 0.0118-0.0195 0.0117-0.0234 0.0234-0.0508 0.0312-0.0742 0.0039-0.0117 0.0117-0.0234 0.0156-0.0352 0.0079-0.0195 0.0118-0.0429 0.0157-0.0625 0.0039-0.0156 0.0078-0.0312 0.0117-0.0507 0.0039-0.0313 0.0078-0.0626 0.0078-0.0938 0-0.0391-0.0039-0.0742-0.0117-0.1133-0.0195-0.1094-0.0664-0.2109-0.1367-0.3086-0.2969-0.4101-1.0118-0.7031-1.8516-0.7031zm-1.8516 2.25c-0.0976 0.1289-0.1484 0.2695-0.1484 0.4102 0 0.6018 0.8945 1.0898 2 1.0898s2-0.488 2-1.0898c0-0.1407-0.0508-0.2813-0.1484-0.4102-0.3047 0.4102-1.0352 0.75-1.8516 0.75s-1.5469-0.3398-1.8516-0.75zm0 1.5c-0.0976 0.129-0.1484 0.27-0.1484 0.41 0 0.602 0.8945 1.09 2 1.09s2-0.48828 2-1.0898c0-0.14-0.0508-0.281-0.1484-0.41-0.3047 0.41-1.0352 0.75-1.8516 0.75s-1.5469-0.34-1.8516-0.75z" fill="#fff"/>
  <path id="path11" d="m3.625 1.75c-0.3477 0-0.625 0.2773-0.625 0.625v0.5c0-0.3477 0.2773-0.625 0.625-0.625h5.625v-0.5z" fill-opacity=".2" fill="#fff"/>
 </g>
</svg>
